X: 41641
T: Up The Southern Shore
R: jig
M: 6/8
K: Dmajor
|:d2B Bcd|A2A AFA|~B3 BAB|g3 f2e|
d2B Bcd|A2A AFA|Bcd efe|1 d2f afe:|2 d3 d2A||
|:d2e f2g|a2b a2f|d2e f2g|a3 afa|
b2a a2f|g3 f2e|d2B BAB|g3 f2e:|

